X:198
T: ROMPEL TOMPEL TORIA
N: K2522
O: Europa, Mitteleuropa, Deutschland, Elberfeld
R: Kinder - Lied, Rate - Spiel
M: 2/4
L: 1/16
K: C
 | C2C2B,2D2 | C2C2G,4 |
C2C2B,2D2 | C4z4 |
C2C2B,2G,2 | C2CCG,2G,2 |
C2C2B,2G,2 | C2C2G,2G,2

